build/img/index/feature-2.svg

<svg width="61" height="80" viewBox="0 0 61 80" fill="none" xmlns="http://www.w3.org/2000/svg">
<path fill-rule="evenodd" clip-rule="evenodd" d="M6.61255 18.6279H14.5474C18.1975 18.6235 21.1555 15.6475 21.1599 11.9751V10.6445H22.4824C24.6736 10.6445 26.45 8.85742 26.45 6.65283V3.9917C26.45 1.78711 24.6736 0 22.4824 0H1.32251C0.592041 0 0 0.595703 0 1.33057V11.9751C0.00439453 15.6475 2.9624 18.6233 6.61255 18.6279ZM23.8049 3.9917V6.65283C23.8049 7.3877 23.2126 7.9834 22.4824 7.9834H21.1599V2.66113H22.4824C23.2126 2.66113 23.8049 3.25684 23.8049 3.9917ZM18.5149 2.66113H2.64502V11.9751C2.64502 14.1797 4.42139 15.9668 6.61255 15.9668H14.5474C16.7388 15.9668 18.5149 14.1797 18.5149 11.9751V2.66113Z" transform="translate(19.8389 39.9199)" fill="#F3084E"/>
<path d="M0.000661247 7.98337H2.64565C2.63656 7.75069 2.71012 7.52233 2.85328 7.33938C3.63372 6.1111 3.63372 4.53871 2.85328 3.31044C2.57556 2.92407 2.57556 2.40216 2.85328 2.0158C3.24573 1.41854 3.45005 0.716008 3.43914 0H0.794157C0.803415 0.234179 0.729355 0.463867 0.585203 0.647983C-0.195068 1.87676 -0.195068 3.44948 0.585203 4.67825C0.861935 5.06345 0.861935 5.5837 0.585203 5.9689C0.19358 6.56599 -0.010084 7.26802 0.000661247 7.98337Z" transform="translate(28.699 29.2754)" fill="#F3084E"/>
<path d="M0.000661247 7.98337H2.64565C2.63656 7.75069 2.71012 7.52233 2.85328 7.33938C3.63372 6.1111 3.63372 4.53871 2.85328 3.31044C2.57556 2.92407 2.57556 2.40216 2.85328 2.0158C3.24573 1.41854 3.45005 0.716008 3.43914 0H0.794157C0.803415 0.234179 0.729355 0.463867 0.585203 0.647983C-0.195068 1.87676 -0.195068 3.44948 0.585203 4.67825C0.861935 5.06345 0.861935 5.5837 0.585203 5.9689C0.19358 6.56599 -0.010084 7.26802 0.000661247 7.98337Z" transform="translate(35.3113 29.2754)" fill="#F3084E"/>
<path d="M0.000661247 7.98337H2.64565C2.63656 7.75069 2.71012 7.52233 2.85328 7.33938C3.63372 6.1111 3.63372 4.53871 2.85328 3.31044C2.57556 2.92407 2.57556 2.40216 2.85328 2.0158C3.24573 1.41854 3.45005 0.716008 3.43914 0H0.794157C0.803415 0.234179 0.729355 0.463867 0.585203 0.647983C-0.195068 1.87676 -0.195068 3.44948 0.585203 4.67825C0.861935 5.06345 0.861935 5.5837 0.585203 5.9689C0.19358 6.56599 -0.010084 7.26802 0.000661247 7.98337Z" transform="translate(22.0864 29.2754)" fill="#F3084E"/>
<path fill-rule="evenodd" clip-rule="evenodd" d="M46.0439 6.65576H59.5122C60.2424 6.65576 60.8347 7.25146 60.8347 7.98633V78.5061C60.8347 79.241 60.2424 79.8367 59.5122 79.8367H1.32251C0.592041 79.8367 0 79.241 0 78.5061V7.98633C0 7.25146 0.592041 6.65576 1.32251 6.65576H14.7908C15.3491 5.06665 16.8396 4.00171 18.5149 3.99463H24.3564C25.0234 2.45581 26.2441 1.22778 27.7737 0.556394C31.1211 -0.912356 35.0183 0.62695 36.4783 3.99463H42.3198C43.9951 4.00171 45.4856 5.06665 46.0439 6.65576ZM46.2874 14.6392V15.9697C46.2874 16.7046 45.6953 17.3003 44.9648 17.3003H15.8701C15.1396 17.3003 14.5476 16.7046 14.5476 15.9697V14.6392H7.93506V71.8533H52.8999V14.6392H46.2874ZM17.1924 7.98633C17.1924 7.25146 17.7844 6.65576 18.5149 6.65576H25.2993C25.9041 6.65551 26.4319 6.24243 26.5808 5.65259C27.1418 3.52148 29.3137 2.25146 31.4319 2.81592C32.8098 3.1831 33.8862 4.26611 34.2512 5.65259C34.4004 6.24341 34.9294 6.65674 35.5354 6.65576H42.3198C43.05 6.65576 43.6423 7.25146 43.6423 7.98633V14.6392H17.1924V7.98633ZM2.64502 77.1755H58.1897V9.31689H46.2874V11.978H54.2222C54.9526 11.978 55.5447 12.5737 55.5447 13.3086V73.1838C55.5447 73.9187 54.9526 74.5144 54.2222 74.5144H6.61255C5.88208 74.5144 5.29004 73.9187 5.29004 73.1838V13.3086C5.29004 12.5737 5.88208 11.978 6.61255 11.978H14.5474V9.31689H2.64502V77.1755Z" transform="translate(0.00146484)" fill="#F3084E"/>
<path fill-rule="evenodd" clip-rule="evenodd" d="M0 3.9917C0 1.78711 1.77637 0 3.96753 0C6.15869 0 7.93506 1.78711 7.93506 3.9917C7.93506 6.19629 6.15869 7.9834 3.96753 7.9834C1.77637 7.9834 0 6.19629 0 3.9917ZM2.64502 3.9917C2.64502 4.72656 3.23706 5.32227 3.96753 5.32227C4.69775 5.32227 5.29004 4.72656 5.29004 3.9917C5.29004 3.25684 4.69775 2.66113 3.96753 2.66113C3.23706 2.66113 2.64502 3.25684 2.64502 3.9917Z" transform="translate(26.4514 3.99463)" fill="#F3084E"/>
</svg>

<svg width="61" height="80" viewBox="0 0 61 80" fill="none" xmlns="http://www.w3.org/2000/svg"><path fill-rule="evenodd" clip-rule="evenodd" d="M26.451 58.548h7.935c3.65-.005 6.608-2.98 6.613-6.653v-1.33h1.322c2.192 0 3.968-1.788 3.968-3.992v-2.661c0-2.205-1.777-3.992-3.968-3.992h-21.16c-.73 0-1.322.596-1.322 1.33v10.645c.004 3.672 2.962 6.648 6.612 6.653zm17.193-14.636v2.66c0 .736-.593 1.331-1.323 1.331H41v-5.322h1.322c.73 0 1.323.596 1.323 1.33zm-5.29-1.331h-15.87v9.314c0 2.205 1.776 3.992 3.967 3.992h7.935c2.192 0 3.968-1.787 3.968-3.992v-9.314z" fill="#F3084E"/><path d="M28.7 37.259h2.645a.983.983 0 0 1 .207-.644 3.76 3.76 0 0 0 0-4.03 1.11 1.11 0 0 1 0-1.294c.393-.597.597-1.3.586-2.016h-2.645a.988.988 0 0 1-.209.648 3.762 3.762 0 0 0 0 4.03c.277.386.277.906 0 1.291a3.576 3.576 0 0 0-.584 2.015zm6.612 0h2.645a.983.983 0 0 1 .208-.644 3.76 3.76 0 0 0 0-4.03 1.11 1.11 0 0 1 0-1.294c.392-.597.596-1.3.585-2.016h-2.645a.988.988 0 0 1-.208.648 3.762 3.762 0 0 0 0 4.03 1.11 1.11 0 0 1 0 1.291 3.576 3.576 0 0 0-.585 2.015zm-13.225 0h2.645a.983.983 0 0 1 .208-.644 3.76 3.76 0 0 0 0-4.03 1.11 1.11 0 0 1 0-1.294c.392-.597.596-1.3.586-2.016H22.88a.988.988 0 0 1-.21.648 3.762 3.762 0 0 0 0 4.03c.277.386.277.906 0 1.291a3.576 3.576 0 0 0-.584 2.015z" fill="#F3084E"/><path fill-rule="evenodd" clip-rule="evenodd" d="M46.045 6.656h13.469c.73 0 1.322.595 1.322 1.33v70.52c0 .735-.592 1.33-1.322 1.33H1.324c-.73 0-1.323-.595-1.323-1.33V7.986c0-.735.593-1.33 1.323-1.33h13.468a3.97 3.97 0 0 1 3.724-2.661h5.842A6.633 6.633 0 0 1 27.775.556c3.348-1.468 7.245.07 8.705 3.439h5.841a3.97 3.97 0 0 1 3.724 2.66zm.244 7.983v1.33c0 .736-.592 1.331-1.323 1.331H15.872c-.73 0-1.323-.595-1.323-1.33v-1.33H7.937v57.213H52.9V14.64h-6.61zM17.194 7.986c0-.735.592-1.33 1.322-1.33h6.785c.605 0 1.132-.414 1.281-1.003.561-2.132 2.733-3.402 4.851-2.837a3.98 3.98 0 0 1 2.82 2.837c.149.59.678 1.004 1.284 1.003h6.784c.73 0 1.323.595 1.323 1.33v6.653h-26.45V7.986zM2.646 77.176h55.545V9.316H46.29v2.662h7.935c.73 0 1.322.596 1.322 1.33v59.876c0 .735-.592 1.33-1.322 1.33H6.614c-.73 0-1.322-.595-1.322-1.33V13.309c0-.735.592-1.331 1.322-1.331h7.935V9.317H2.646v67.858z" fill="#F3084E"/><path fill-rule="evenodd" clip-rule="evenodd" d="M26.451 7.986c0-2.204 1.777-3.991 3.968-3.991s3.967 1.787 3.967 3.991c0 2.205-1.776 3.992-3.967 3.992s-3.968-1.787-3.968-3.992zm2.645 0c0 .735.592 1.33 1.323 1.33.73 0 1.322-.595 1.322-1.33 0-.735-.592-1.33-1.322-1.33-.73 0-1.323.595-1.323 1.33z" fill="#F3084E"/></svg>
